carriers/postHr.svg

<svg width="128" height="64" viewBox="0 0 128 64" fill="none" xmlns="http://www.w3.org/2000/svg">
<rect width="128" height="64" rx="6" fill="#FFD403"/>
<path d="M46.6073 14.2065C46.9785 14.2091 47.1253 14.2091 47.4907 14.2155C47.5947 14.2152 47.6946 14.2562 47.7684 14.3296C47.8422 14.403 47.8837 14.5027 47.8839 14.6068C47.8897 14.8095 47.7362 14.9816 47.534 14.9987C39.6065 16.0802 33.7745 22.9717 34.019 30.9689C34.2635 38.9661 40.5056 45.4885 48.4843 46.0837C56.4631 46.679 63.6039 41.1551 65.0324 33.2828C65.0514 33.0933 65.2051 32.9456 65.3952 32.9342C65.5873 32.9372 65.7446 33.0878 65.7561 33.2795C65.7037 41.9471 59.7808 49.4759 51.3691 51.5672C42.9575 53.6586 34.1984 49.78 30.0932 42.1461L14 14.2065H46.6073ZM65.7134 17.0764C66.0909 17.0969 66.4664 17.1455 66.8366 17.2219L66.2637 19.1704C65.9266 18.8807 65.5069 18.7042 65.0641 18.666C64.5404 18.6799 64.047 18.9148 63.7061 19.3126C63.3099 19.7182 63.0414 20.231 62.934 20.7877L62.07 25.4121L60.1481 25.416L61.6768 17.2297H63.5955L63.4662 17.941C64.0844 17.3879 64.8838 17.0803 65.7134 17.0764ZM53.7628 14.2142L52.968 18.5327H57.4165L58.2119 14.2142H60.2373L58.168 25.4114H56.1581L57.1139 20.1992H52.6654L51.7064 25.4114H49.6887L51.7452 14.2142H53.7628ZM69.3561 17.2265L70.7316 22.1871L73.6132 17.2265H75.8293L70.5557 25.5653H69.8683L67.3611 17.2265H69.3561ZM80.3696 17.0732C81.3806 17.0199 82.3929 17.1493 83.3579 17.4554L82.4099 22.4768C82.3733 22.6843 82.3562 22.8947 82.3588 23.1054C82.3138 23.8838 82.4012 24.6642 82.6175 25.4134H81.425C81.0676 25.4134 80.8027 25.1407 80.6302 24.5953C79.9847 25.2393 79.1031 25.5899 78.1916 25.5653C77.4298 25.6121 76.6826 25.3409 76.1281 24.8165C75.6174 24.2456 75.3559 23.4943 75.4019 22.7297C75.3672 21.2724 75.8675 19.853 76.8084 18.7397C77.6748 17.6645 78.989 17.0495 80.3696 17.0732ZM80.2015 18.6349C79.3444 18.6351 78.5571 19.1075 78.1535 19.8636C77.6346 20.7114 77.3694 21.69 77.3891 22.6837C77.3346 23.0442 77.4529 23.4092 77.7085 23.6692C77.964 23.9292 78.3269 24.0538 78.6883 24.0056C79.3169 23.9549 79.8678 23.565 80.1245 22.989C80.5376 22.3117 80.9046 20.9114 81.2258 18.7882C80.8929 18.6909 80.5483 18.6393 80.2015 18.6349ZM105.432 17.8912L104.094 16.7395C103.51 17.4563 102.854 18.1119 102.137 18.6963L100.693 19.9496L101.679 13.8708H99.799L97.7943 25.4121H99.713L100.256 22.308L100.579 22.0403L103.17 25.4114H105.433L102.055 20.9862C104.083 19.1979 105.209 18.1663 105.432 17.8912ZM88.9471 14.7568L88.3742 17.2258H90.6136L90.2851 18.7623H88.0302L87.2011 22.394C87.1416 22.6315 87.1082 22.8748 87.1015 23.1196C87.1015 23.6801 87.4175 23.9603 88.0495 23.9603C88.5276 23.9072 88.993 23.7727 89.4257 23.5626V25.2827C88.6966 25.4956 87.9383 25.5912 87.1791 25.566C86.6202 25.5905 86.0766 25.3794 85.6808 24.984C85.2959 24.5765 85.092 24.0308 85.1156 23.4708C85.1155 23.2675 85.1385 23.0648 85.1841 22.8668L86.1089 18.7623H85.1609L85.4894 17.2258H86.4374L86.7607 15.5516L88.9471 14.7568ZM94.9043 17.0732C95.7583 17.1278 96.5938 17.3458 97.3656 17.7153L96.479 19.4652C96.0326 19.0051 95.4361 18.7204 94.7976 18.6627C94.5068 18.656 94.2201 18.733 93.9718 18.8845C93.7592 18.9996 93.627 19.2222 93.6278 19.4639C93.6235 19.7653 93.8987 20.0559 94.4536 20.3357C95.0084 20.6155 95.4339 20.8396 95.7301 21.0082C96.0235 21.1696 96.2729 21.4006 96.4563 21.6808C96.6465 21.968 96.7448 22.3063 96.7383 22.6508C96.771 23.4859 96.3912 24.2837 95.7224 24.7848C94.9729 25.3294 94.0612 25.6042 93.1357 25.5647C92.2067 25.5553 91.2979 25.2935 90.5063 24.8074L91.5151 23.0724C92.0003 23.604 92.6723 23.9273 93.3904 23.9745C93.7327 23.9884 94.0695 23.8861 94.3462 23.6842C94.5956 23.5009 94.7386 23.2065 94.7284 22.8972C94.7284 22.6217 94.4889 22.3593 94.01 22.1101C93.531 21.861 93.1083 21.6342 92.7418 21.4298C92.405 21.2486 92.1167 20.9891 91.9012 20.6732C91.7133 20.376 91.6149 20.0309 91.6179 19.6793C91.5959 18.9286 91.952 18.217 92.5659 17.7845C93.2461 17.297 94.0679 17.047 94.9043 17.0732ZM94.1897 32.693C93.573 33.1279 93.2155 33.8431 93.2378 34.5975C93.235 34.9504 93.3335 35.2967 93.5217 35.5953C93.7387 35.9125 94.0285 36.173 94.3669 36.3551C94.7355 36.5603 95.1604 36.788 95.6415 37.038C96.1226 37.2881 96.363 37.5519 96.3626 37.8295C96.3734 38.1404 96.2299 38.4364 95.9791 38.6204C95.7011 38.8233 95.3626 38.9261 95.0188 38.9121C94.2984 38.8642 93.6244 38.5398 93.1376 38.0067L92.1243 39.7528C92.9194 40.2409 93.8323 40.5035 94.7653 40.5126C95.6938 40.5515 96.6083 40.2755 97.3604 39.7295C98.032 39.2267 98.4137 38.426 98.3815 37.5877C98.3882 37.2413 98.2892 36.9011 98.0976 36.6125C97.9138 36.3306 97.6632 36.0985 97.3681 35.9367C97.0711 35.7673 96.6437 35.542 96.0858 35.2609C95.5279 34.9799 95.2516 34.6882 95.2568 34.386C95.2557 34.1431 95.3884 33.9194 95.6021 33.804C95.8515 33.6515 96.1395 33.574 96.4318 33.5809C97.0732 33.6388 97.6725 33.9249 98.1209 34.3873L99.0114 32.6296C98.2362 32.2579 97.397 32.0384 96.5391 31.9829C95.6992 31.9549 94.8735 32.2045 94.1897 32.693ZM113.055 22.4768L114 17.4554C113.036 17.1497 112.024 17.0202 111.014 17.0732C109.634 17.0497 108.319 17.6646 107.452 18.7397C106.512 19.8532 106.012 21.2725 106.046 22.7297C106 23.4943 106.261 24.2456 106.772 24.8165C107.327 25.341 108.074 25.6121 108.836 25.5653C109.748 25.5898 110.629 25.2392 111.274 24.5953C111.447 25.1407 111.712 25.4134 112.069 25.4134H113.261C113.045 24.6643 112.958 23.8838 113.003 23.1054C113 22.8947 113.018 22.6843 113.055 22.4768ZM110.767 22.989C110.51 23.5646 109.96 23.9544 109.332 24.0056C108.971 24.0538 108.608 23.9292 108.352 23.6692C108.097 23.4092 107.979 23.0442 108.033 22.6837C108.013 21.69 108.279 20.7114 108.797 19.8636C109.201 19.1074 109.988 18.635 110.846 18.6349C111.192 18.6394 111.537 18.6909 111.87 18.7882C111.549 20.9114 111.181 22.3117 110.767 22.989ZM91.1698 32.8081C90.495 32.2187 89.6142 31.9206 88.7202 31.9791C87.4009 31.9486 86.1377 32.5122 85.2792 33.5143C84.3682 34.5522 83.8831 35.8961 83.9212 37.2766C83.8625 38.1637 84.1771 39.0348 84.789 39.6797C85.4569 40.2651 86.3289 40.563 87.2153 40.5087C88.5466 40.5467 89.8231 39.9782 90.6854 38.9632C91.5925 37.9029 92.0716 36.5425 92.0292 35.1478C92.0845 34.2817 91.7725 33.4324 91.1698 32.8081ZM89.3267 37.8373C88.9451 38.5258 88.2172 38.9502 87.43 38.9431C86.4217 38.9431 85.9175 38.3572 85.9175 37.1855C85.8977 36.2869 86.1433 35.4024 86.6236 34.6427C87.0093 33.9629 87.731 33.5434 88.5126 33.5447C89.5205 33.5447 90.0245 34.0976 90.0245 35.2034C90.0482 36.13 89.8061 37.044 89.3267 37.8373ZM79.6693 31.9791C78.8954 32.0049 78.1512 32.2826 77.5495 32.77C77.5172 32.5036 77.4581 32.2412 77.3729 31.9868L75.4976 32.3244C75.5888 32.7713 75.6351 33.2263 75.636 33.6824C75.636 34.0148 75.605 34.3465 75.5435 34.6731L73.8582 43.6632L75.8875 42.9079L76.4217 40.1324C76.9228 40.3849 77.4772 40.5137 78.0384 40.5081C79.3913 40.5614 80.6984 40.0133 81.6087 39.011C82.5324 37.9505 83.0157 36.577 82.9596 35.1717C82.9613 33.0433 81.8645 31.9791 79.6693 31.9791ZM80.1452 37.975C79.5507 38.6106 78.7024 38.946 77.834 38.8888C77.4247 38.919 77.0214 38.7772 76.7211 38.4976L77.488 34.4364C77.7013 34.2046 77.9599 34.019 78.2479 33.8913C78.5219 33.7411 78.8263 33.6544 79.1384 33.6378C79.6274 33.61 80.1068 33.7814 80.4673 34.1131C80.7972 34.4437 80.9728 34.8979 80.951 35.3644C81.0115 36.3041 80.7245 37.2332 80.1446 37.975H80.1452ZM113.044 37.4066L113.997 32.3632C113.027 32.0558 112.01 31.9257 110.995 31.9791C109.608 31.9547 108.287 32.5724 107.417 33.6527C106.472 34.7711 105.969 36.1969 106.004 37.6608C105.958 38.4287 106.22 39.1833 106.733 39.7566C107.29 40.2838 108.041 40.5562 108.807 40.5087C109.722 40.5335 110.608 40.1808 111.256 39.5335C111.428 40.0811 111.694 40.3548 112.054 40.3548H113.252C113.035 39.6021 112.948 38.8179 112.994 38.0358C112.991 37.825 113.008 37.6143 113.044 37.4066ZM110.749 37.924C110.49 38.5026 109.937 38.8942 109.305 38.9451C108.942 38.9938 108.576 38.8682 108.319 38.6063C108.063 38.3444 107.944 37.9767 108 37.6142C107.981 36.6159 108.247 35.6328 108.768 34.7811C109.173 34.0208 109.964 33.5454 110.825 33.5447C111.174 33.5489 111.52 33.6006 111.855 33.6986C111.533 35.833 111.164 37.2406 110.749 37.9214L110.749 37.924ZM104.097 29.6523L101.899 30.4503L101.575 32.1317H100.624L100.293 33.6753H101.246L100.317 37.7979C100.271 37.9967 100.247 38.2002 100.247 38.4044C100.224 38.9672 100.429 39.5155 100.816 39.9248C101.214 40.321 101.76 40.5321 102.321 40.5068C103.084 40.5321 103.845 40.4363 104.578 40.2229V38.4969C104.144 38.7082 103.676 38.8433 103.196 38.8966C102.561 38.8966 102.244 38.615 102.244 38.052C102.251 37.806 102.284 37.5614 102.344 37.3225L103.173 33.6753H105.437L105.767 32.1317H103.517L104.097 29.6523ZM96.9316 29.9601L95.7954 28.9546H94.5493L95.7547 31.0989H97.6301L99.6942 28.9546H98.4746L96.9316 29.9601Z" fill="black"/>
</svg>

<svg xmlns="http://www.w3.org/2000/svg" width="128" height="64" fill="none"><rect width="128" height="64" fill="#FFD403" rx="6"/><path fill="#000" d="M46.607 14.207c.371.002.518.002.884.008a.392.392 0 0 1 .393.392.382.382 0 0 1-.35.392c-7.928 1.081-13.76 7.973-13.515 15.97.245 7.997 6.487 14.52 14.465 15.115 7.98.595 15.12-4.929 16.548-12.801a.388.388 0 0 1 .363-.349c.192.003.35.154.361.346a18.963 18.963 0 0 1-35.663 8.866L14 14.206h32.607Zm19.106 2.87c.378.02.753.068 1.124.145l-.573 1.948a2.12 2.12 0 0 0-1.2-.504 1.853 1.853 0 0 0-1.358.647 2.896 2.896 0 0 0-.772 1.475l-.864 4.624-1.922.004 1.529-8.186h1.919l-.13.711a3.394 3.394 0 0 1 2.247-.865Zm-11.95-2.863-.795 4.319h4.448l.796-4.319h2.025l-2.069 11.197h-2.01l.956-5.212h-4.449l-.959 5.212H49.69l2.056-11.197h2.018Zm15.593 3.013 1.376 4.96 2.881-4.96h2.216l-5.273 8.338h-.688l-2.507-8.338h1.995Zm11.014-.154a8.418 8.418 0 0 1 2.988.382l-.948 5.022a3.378 3.378 0 0 0-.051.628 6.887 6.887 0 0 0 .259 2.308h-1.193c-.357 0-.622-.272-.795-.818a3.326 3.326 0 0 1-2.438.97 2.757 2.757 0 0 1-2.064-.748 2.871 2.871 0 0 1-.726-2.087 5.961 5.961 0 0 1 1.406-3.99 4.475 4.475 0 0 1 3.562-1.667Zm-.169 1.562c-.857 0-1.644.473-2.047 1.229a5.204 5.204 0 0 0-.765 2.82 1.159 1.159 0 0 0 1.3 1.322c.628-.051 1.179-.441 1.436-1.017.413-.677.78-2.078 1.1-4.2a3.824 3.824 0 0 0-1.023-.154Zm25.231-.744-1.338-1.151a13.639 13.639 0 0 1-1.957 1.956l-1.444 1.254.986-6.08h-1.88l-2.005 11.542h1.919l.543-3.104.323-.268 2.591 3.371h2.263l-3.378-4.425c2.028-1.788 3.154-2.82 3.377-3.095Zm-16.485-3.134-.573 2.469h2.24l-.329 1.536H88.03l-.829 3.632c-.06.238-.093.48-.1.726 0 .56.317.84.948.84a4.216 4.216 0 0 0 1.377-.397v1.72a7.167 7.167 0 0 1-2.247.283 1.996 1.996 0 0 1-1.498-.582 2.076 2.076 0 0 1-.565-1.513c0-.204.022-.406.068-.604l.925-4.105h-.948l.328-1.536h.948l.324-1.674 2.186-.795Zm5.957 2.316c.854.055 1.69.273 2.462.642l-.887 1.75a2.678 2.678 0 0 0-1.681-.802c-.291-.007-.578.07-.826.221a.656.656 0 0 0-.344.58c-.004.301.27.592.826.872.554.28.98.504 1.276.672.293.162.543.393.726.673.19.287.289.625.282.97a2.542 2.542 0 0 1-1.016 2.134c-.75.544-1.66.82-2.586.78a5.124 5.124 0 0 1-2.63-.758l1.01-1.735a2.786 2.786 0 0 0 1.874.902c.343.014.68-.088.956-.29a.938.938 0 0 0 .382-.787c0-.275-.24-.538-.718-.787-.479-.249-.902-.476-1.268-.68a2.386 2.386 0 0 1-.84-.757 1.83 1.83 0 0 1-.284-.994 2.238 2.238 0 0 1 .948-1.894 3.81 3.81 0 0 1 2.338-.712Zm-.714 15.62a2.25 2.25 0 0 0-.952 1.904c-.003.353.096.7.284.998.217.318.506.578.845.76a50.9 50.9 0 0 0 1.274.683c.482.25.722.514.722.792a.94.94 0 0 1-.384.79 1.524 1.524 0 0 1-.96.292 2.799 2.799 0 0 1-1.881-.905l-1.014 1.746c.795.488 1.708.75 2.641.76a4.124 4.124 0 0 0 2.595-.783 2.553 2.553 0 0 0 1.022-2.142 1.704 1.704 0 0 0-.284-.976 2.044 2.044 0 0 0-.73-.675 30.03 30.03 0 0 0-1.282-.676c-.558-.281-.834-.573-.83-.875a.658.658 0 0 1 .346-.582c.25-.153.537-.23.83-.223a2.69 2.69 0 0 1 1.689.806l.89-1.757a6.722 6.722 0 0 0-2.472-.647 3.823 3.823 0 0 0-2.35.71Zm18.865-10.216.945-5.022a8.42 8.42 0 0 0-2.986-.382 4.479 4.479 0 0 0-3.562 1.667 5.97 5.97 0 0 0-1.406 3.99 2.87 2.87 0 0 0 .726 2.087 2.758 2.758 0 0 0 2.064.748 3.323 3.323 0 0 0 2.438-.97c.173.546.438.818.795.818h1.192a6.894 6.894 0 0 1-.258-2.308c-.003-.21.015-.42.052-.628Zm-2.288.512a1.725 1.725 0 0 1-1.435 1.017 1.16 1.16 0 0 1-1.299-1.322 5.21 5.21 0 0 1 .764-2.82 2.323 2.323 0 0 1 2.049-1.23c.346.005.691.057 1.024.154-.321 2.123-.689 3.524-1.103 4.201Zm-19.597 9.82a3.388 3.388 0 0 0-2.45-.83 4.397 4.397 0 0 0-3.44 1.535 5.474 5.474 0 0 0-1.359 3.763 3.186 3.186 0 0 0 .868 2.403c.668.585 1.54.883 2.426.829a4.389 4.389 0 0 0 3.47-1.546 5.607 5.607 0 0 0 1.344-3.815 3.086 3.086 0 0 0-.86-2.34Zm-1.843 5.028a2.146 2.146 0 0 1-1.897 1.106c-1.008 0-1.513-.586-1.513-1.758a4.57 4.57 0 0 1 .707-2.542 2.168 2.168 0 0 1 1.889-1.098c1.007 0 1.511.553 1.511 1.658a4.853 4.853 0 0 1-.697 2.634Zm-9.658-5.858a3.556 3.556 0 0 0-2.12.791 3.971 3.971 0 0 0-.176-.783l-1.875.337c.09.447.137.902.138 1.358 0 .333-.031.664-.093.991l-1.685 8.99 2.03-.755.534-2.776a3.515 3.515 0 0 0 1.616.376 4.58 4.58 0 0 0 3.57-1.497 5.51 5.51 0 0 0 1.352-3.84c.001-2.128-1.095-3.192-3.29-3.192Zm.476 5.996a2.903 2.903 0 0 1-2.311.914c-.41.03-.813-.112-1.113-.391l.767-4.062a2.3 2.3 0 0 1 .76-.545c.274-.15.578-.237.89-.253a1.81 1.81 0 0 1 1.33.475c.33.33.505.785.483 1.251.06.94-.226 1.87-.806 2.611Zm32.899-.568.953-5.044a8.465 8.465 0 0 0-3.002-.384 4.493 4.493 0 0 0-3.578 1.674 5.989 5.989 0 0 0-1.413 4.008 2.884 2.884 0 0 0 .729 2.096c.557.527 1.308.8 2.074.752a3.338 3.338 0 0 0 2.449-.976c.172.548.438.822.798.822h1.198a6.907 6.907 0 0 1-.258-2.32c-.003-.21.014-.42.05-.628Zm-2.295.517c-.259.579-.812.97-1.444 1.021a1.166 1.166 0 0 1-1.305-1.33 5.238 5.238 0 0 1 .768-2.834 2.333 2.333 0 0 1 2.057-1.236 3.83 3.83 0 0 1 1.03.154c-.322 2.134-.691 3.542-1.106 4.222v.003Zm-6.652-8.272-2.198.798-.324 1.682h-.951l-.331 1.543h.953l-.929 4.123c-.046.199-.07.402-.07.606a2.089 2.089 0 0 0 .569 1.52c.398.397.944.608 1.505.583a7.215 7.215 0 0 0 2.257-.284v-1.726a4.223 4.223 0 0 1-1.382.4c-.635 0-.952-.282-.952-.845.007-.246.04-.49.1-.73l.829-3.647h2.264l.33-1.543h-2.25l.58-2.48Zm-7.165.308-1.137-1.005H94.55l1.206 2.144h1.875l2.064-2.144h-1.22l-1.542 1.005Z"/></svg>
